packages/ui-icons/src/Basic/24/Calendar_24.svg

<svg xmlns="http://www.w3.org/2000/svg" viewBox="0 0 32 32"><path d="M28 6h-6V4h-2v2h-8V4h-2v2H4v18.46A3.54 3.54 0 0 0 7.54 28h16.92A3.54 3.54 0 0 0 28 24.46Zm-2 18.46A1.54 1.54 0 0 1 24.46 26H7.54A1.54 1.54 0 0 1 6 24.46V14h20ZM26 12H6V8h4v2h2V8h8v2h2V8h4Z"/></svg>

<svg id="Ready" xmlns="http://www.w3.org/2000/svg" viewBox="0 0 32 32"><title>Megaicons_work_24_1.8_cp</title><path d="M28,6H22V4H20V6H12V4H10V6H4V24.46A3.54,3.54,0,0,0,7.54,28H24.46A3.54,3.54,0,0,0,28,24.46ZM26,24.46A1.54,1.54,0,0,1,24.46,26H7.54A1.54,1.54,0,0,1,6,24.46V14H26ZM26,12H6V8h4v2h2V8h8v2h2V8h4Z"/></svg>
